images/google.svg

<svg width="25" height="24" fill="none" xmlns="http://www.w3.org/2000/svg"><path fill-rule="evenodd" clip-rule="evenodd" d="M12.5 0C5.872 0 .5 5.373.5 12s5.372 12 12 12c6.627 0 12-5.373 12-12s-5.373-12-12-12zm.14 19.018c-3.868 0-7-3.14-7-7.018 0-3.878 3.132-7.018 7-7.018 1.89 0 3.47.697 4.682 1.829l-1.974 1.978v-.004c-.735-.702-1.667-1.062-2.708-1.062-2.31 0-4.187 1.956-4.187 4.273 0 2.315 1.877 4.277 4.187 4.277 2.096 0 3.522-1.202 3.816-2.852H12.64v-2.737h6.585c.088.47.135.96.135 1.474 0 4.01-2.677 6.86-6.72 6.86z" fill="#F53B49"/></svg>

<svg width="25" height="24" viewBox="0 0 25 24" fill="none" xmlns="http://www.w3.org/2000/svg">
<path fill-rule="evenodd" clip-rule="evenodd" d="M12.5 0C5.872 0 0.5 5.373 0.5 12C0.5 18.627 5.872 24 12.5 24C19.127 24 24.5 18.627 24.5 12C24.5 5.373 19.127 0 12.5 0ZM12.64 19.018C8.772 19.018 5.64 15.878 5.64 12C5.64 8.122 8.772 4.982 12.64 4.982C14.53 4.982 16.11 5.679 17.322 6.811L15.348 8.789V8.785C14.613 8.083 13.681 7.723 12.64 7.723C10.33 7.723 8.453 9.679 8.453 11.996C8.453 14.311 10.33 16.273 12.64 16.273C14.736 16.273 16.162 15.071 16.456 13.421H12.64V10.684H19.225C19.313 11.154 19.36 11.644 19.36 12.158C19.36 16.168 16.683 19.018 12.64 19.018Z" fill="#F53B49"/>
</svg>
